svg/l/FM.svg

<svg width="32" height="24" viewBox="0 0 32 24" fill="none" xmlns="http://www.w3.org/2000/svg">
<mask id="mask0" mask-type="alpha" maskUnits="userSpaceOnUse" x="0" y="0" width="32" height="24">
<rect width="32" height="24" fill="white"/>
</mask>
<g mask="url(#mask0)">
<path fill-rule="evenodd" clip-rule="evenodd" d="M0 0V24H32V0H0Z" fill="#63B3E1"/>
<mask id="mask1" mask-type="alpha" maskUnits="userSpaceOnUse" x="0" y="0" width="32" height="24">
<path fill-rule="evenodd" clip-rule="evenodd" d="M0 0V24H32V0H0Z" fill="white"/>
</mask>
<g mask="url(#mask1)">
<path fill-rule="evenodd" clip-rule="evenodd" d="M16 7.30005L14.2366 8.2271L14.5734 6.26357L13.1468 4.873L15.1183 4.58652L16 2.80005L16.8817 4.58652L18.8532 4.873L17.4266 6.26357L17.7634 8.2271L16 7.30005Z" fill="#F7FCFF"/>
<path fill-rule="evenodd" clip-rule="evenodd" d="M16 19.3L14.2367 20.2271L14.5734 18.2636L13.1469 16.873L15.1183 16.5865L16 14.8L16.8817 16.5865L18.8532 16.873L17.4266 18.2636L17.7634 20.2271L16 19.3Z" fill="#F7FCFF"/>
<path fill-rule="evenodd" clip-rule="evenodd" d="M9.80005 13.5L8.03669 14.4271L8.37346 12.4635L6.94688 11.0729L8.91837 10.7865L9.80005 9L10.6817 10.7865L12.6532 11.0729L11.2266 12.4635L11.5634 14.4271L9.80005 13.5Z" fill="#F7FCFF"/>
<path fill-rule="evenodd" clip-rule="evenodd" d="M22 13.5L20.2366 14.4271L20.5734 12.4635L19.1468 11.0729L21.1183 10.7865L22 9L22.8817 10.7865L24.8532 11.0729L23.4266 12.4635L23.7634 14.4271L22 13.5Z" fill="#F7FCFF"/>
</g>
</g>
</svg>

<svg width="32" height="24" fill="none" xmlns="http://www.w3.org/2000/svg">
  <mask id="a" maskUnits="userSpaceOnUse" x="0" y="0" width="32" height="24">
    <path fill="#fff" d="M0 0h32v24H0z"/>
  </mask>
  <g mask="url(#a)">
    <path fill-rule="evenodd" clip-rule="evenodd" d="M0 0v24h32V0H0z" fill="#63B3E1"/>
    <mask id="b" maskUnits="userSpaceOnUse" x="0" y="0" width="32" height="24">
      <path fill-rule="evenodd" clip-rule="evenodd" d="M0 0v24h32V0H0z" fill="#fff"/>
    </mask>
    <g mask="url(#b)" fill-rule="evenodd" clip-rule="evenodd" fill="#F7FCFF">
      <path d="M16 7.3l-1.763.927.336-1.963-1.426-1.391 1.971-.287L16 2.8l.882 1.786 1.971.287-1.426 1.39.336 1.964L16 7.3zm0 12l-1.763.927.336-1.963-1.426-1.391 1.971-.287L16 14.8l.882 1.787 1.971.286-1.426 1.39.336 1.964L16 19.3zm-6.2-5.8l-1.763.927.336-1.963-1.426-1.391 1.971-.287L9.8 9l.882 1.787 1.971.286-1.426 1.39.336 1.964L9.8 13.5zm12.2 0l-1.763.927.336-1.963-1.426-1.391 1.971-.287L22 9l.882 1.787 1.971.286-1.426 1.39.336 1.964L22 13.5z"/>
    </g>
  </g>
</svg>
